!!!COM: Music21
!!!OTL: polka_Kierans
!!!OMV: polka_Kierans
**kern
*clefG2
*k[f#c#]
*b:
*M2/4
=1
16e
=
16f#LL
16b
16.b
32aJJk
4ryy
=
16bLL
16cc#
16e
16f#JJ
4ryy
=
8aL
16aL
32cc#L
32eeJJJ
4ryy
=
16ff#LL
16ee
32cc#L
32bJ
16aJJ
4ryy
=
16f#LL
16b
16.b
32aJJk
4ryy
=
16bLL
16cc#
16e
32cc#L
32eeJJJ
4ryy
!!linebreak:original
=
16ff#LL
16ee
32cc#L
32dd
32ee
32cc#JJJ
4ryy
=
16bLL
16a
16aJJ
4ryy
16ryy
=||
*M2/4
16e
=
16f#LL
16b
16.b
32aJJk
4ryy
=
16bLL
16cc#
16e
16f#JJ
4ryy
=
8aL
16aL
32cc#L
32eeJJJ
4ryy
=
16ff#LL
16ee
32cc#L
32bJ
16aJJ
4ryy
!!linebreak:original
=
16f#LL
16b
16.b
32aJJk
4ryy
=
16bLL
16cc#
16e
32cc#L
32eeJJJ
4ryy
=
16ff#LL
16ee
32cc#L
32dd
32ee
32cc#JJJ
4ryy
=
16bLL
16a
16aJJ
4ryy
16ryy
=||
32cc#LLL
32eeJJJ
4..ryy
=
16ff#LL
16ee
16.aa
32eeJJk
4ryy
=
16ff#LL
16ee
16.aa
32eeJJk
4ryy
!!linebreak:original
=
16ddLL
16cc#
32eeL
32ff#
32ee
32cc#JJJ
4ryy
=
16bLL
16a
16f#
32cc#L
32eeJJJ
4ryy
=
16ff#LL
16ee
16.aa
32eeJJk
4ryy
=
16ff#LL
16ee
16.aa
32eeJJk
4ryy
=
16ddLL
16cc#
32eeL
32ff#
32ee
32cc#JJJ
4ryy
=
16bLL
16a
16aJJ
4ryy
16ryy
=||
32cc#LLL
32eeJJJ
4..ryy
!!linebreak:original
=
16ff#LL
16ee
16.aa
32eeJJk
4ryy
=
16ff#LL
16ee
16.aa
32eeJJk
4ryy
=
16ddLL
16cc#
32eeL
32ff#
32ee
32cc#JJJ
4ryy
=
16bLL
16a
16.f#
32eJJk
4ryy
=
16f#LL
16b
16.b
32aJJk
4ryy
=
16bLL
16cc#
16e
32cc#L
32eeJJJ
4ryy
=
16ff#LL
16ee
32cc#L
32dd
32ee
32cc#JJJ
4ryy
!!linebreak:original
=
16bLL
16a
16aJJ
4ryy
16ryy
=||
*-
